src/baseIcons/icon-arrow-up.svg

<?xml version="1.0" encoding="UTF-8"?>
<svg  viewBox="0 0 24 24" version="1.1" xmlns="http://www.w3.org/2000/svg" xmlns:xlink="http://www.w3.org/1999/xlink">
    <title>Icons/Basic icons/arrow-up</title>
    <defs>
        <path d="M12.7062,0.2937 C12.5252,0.1127 12.2752,-0.0003 11.9982,-0.0003 C11.7222,-0.0003 11.4722,0.1127 11.2912,0.2937 L5.2912,6.2937 C4.9012,6.6847 4.9012,7.3177 5.2912,7.7087 C5.6822,8.0987 6.3152,8.0987 6.7062,7.7077 L10.9982,3.4147 L10.9982,22.9997 C10.9982,23.5527 11.4462,23.9997 11.9982,23.9997 C12.5512,23.9997 12.9982,23.5527 12.9982,22.9997 L12.9982,3.4147 L17.2912,7.7077 C17.4872,7.9037 17.7432,8.0007 17.9982,8.0007 C18.2542,8.0007 18.5102,7.9037 18.7062,7.7087 C19.0962,7.3177 19.0962,6.6847 18.7062,6.2937 L12.7062,0.2937 Z"  id="path-1"></path>
    </defs>
    <g  id="Icons/Basic-icons/arrow-up" stroke="none" stroke-width="1" fill="none" fill-rule="evenodd">
        <mask id="mask-2" fill="white">
            <use xlink:href="#path-1"></use>
        </mask>
        <use  id="Shape" fill="#292929" xlink:href="#path-1"></use>
    </g>
</svg>

<svg xmlns="http://www.w3.org/2000/svg" xmlns:xlink="http://www.w3.org/1999/xlink" viewBox="0 0 24 24"><path d="M12.7062.2937c-.181-.181-.431-.294-.708-.294-.276 0-.526.113-.707.294l-6 6c-.39.391-.39 1.024 0 1.415.391.39 1.024.39 1.415-.001l4.292-4.293v19.585c0 .553.448 1 1 1 .553 0 1-.447 1-1V3.4147l4.293 4.293c.196.196.452.293.707.293.256 0 .512-.097.708-.292.39-.391.39-1.024 0-1.415l-6-6z" id="a"/></svg>
